en/_assets/wiki/svg/type-date.svg

<svg xmlns="http://www.w3.org/2000/svg" xmlns:xlink="http://www.w3.org/1999/xlink" width="16" height="16" class="yc-icon GridTable-HeaderCellIcon" fill="currentColor" stroke="none" aria-hidden="true"><svg viewBox="0 0 12 14" xmlns="http://www.w3.org/2000/svg"><path d="M10.0625 2.25H9.04688V1.23438C9.04688 0.904297 8.76758 0.625 8.4375 0.625C8.13281 0.625 7.82812 0.904297 7.82812 1.23438V2.25H4.17188V1.23438C4.17188 0.904297 3.89258 0.625 3.5625 0.625C3.20703 0.625 2.95312 0.904297 2.95312 1.23438V2.25H1.9375C1.02344 2.25 0.3125 2.98633 0.3125 3.875V12C0.3125 12.9141 1.02344 13.625 1.9375 13.625H10.0625C10.9512 13.625 11.6875 12.9141 11.6875 12V3.875C11.6875 2.98633 10.9512 2.25 10.0625 2.25ZM10.4688 5.5V8.14062H6.60938V5.5H10.4688ZM5.39062 5.5V8.14062H1.53125V5.5H5.39062ZM1.53125 12V9.35938H5.39062V12.4062H1.9375C1.70898 12.4062 1.53125 12.2285 1.53125 12ZM10.0625 12.4062H6.60938V9.35938H10.4688V12C10.4688 12.2285 10.2656 12.4062 10.0625 12.4062Z"></path></svg></svg>

<svg xmlns="http://www.w3.org/2000/svg" width="16" height="16" fill="currentColor" aria-hidden="true" class="yc-icon GridTable-HeaderCellIcon">
    <svg xmlns="http://www.w3.org/2000/svg" viewBox="0 0 12 14">
        <path d="M10.063 2.25H9.046V1.234c0-.33-.28-.609-.61-.609-.304 0-.609.28-.609.61V2.25H4.172V1.234c0-.33-.28-.609-.61-.609a.602.602 0 0 0-.609.61V2.25H1.938A1.62 1.62 0 0 0 .313 3.875V12c0 .914.71 1.625 1.625 1.625h8.124A1.62 1.62 0 0 0 11.688 12V3.875c0-.889-.737-1.625-1.626-1.625Zm.406 3.25v2.64h-3.86V5.5h3.86Zm-5.078 0v2.64H1.53V5.5h3.86ZM1.53 12V9.36h3.86v3.046H1.937A.401.401 0 0 1 1.531 12Zm8.531.406H6.61V9.36h3.86V12a.418.418 0 0 1-.406.406Z"/>
    </svg>
</svg>
